v/0.4.11/design-resources/icons/wf_icons/drawer.svg

<?xml version="1.0" encoding="utf-8"?>
<!-- Generated by IcoMoon.io -->
<!DOCTYPE svg PUBLIC "-//W3C//DTD SVG 1.1//EN" "http://www.w3.org/Graphics/SVG/1.1/DTD/svg11.dtd">
<svg version="1.1" xmlns="http://www.w3.org/2000/svg" xmlns:xlink="http://www.w3.org/1999/xlink" width="512" height="512" viewBox="0 0 512 512">
<g>
</g>
	<path d="M352 96h-192l-160 192v128c0 17.673 14.327 32 32 32h448c17.674 0 32-14.327 32-32v-128l-160-192zM384 288l-64 64h-128l-64-64h-86.345l133.333-160h162.024l133.333 160h-86.345z" fill="#595959" />
</svg>

<svg xmlns="http://www.w3.org/2000/svg" width="512" height="512" viewBox="0 0 512 512"><path stroke="#449FDB" d="M0 0"/><path d="M352 96H160L0 288v128c0 17.673 14.327 32 32 32h448c17.674 0 32-14.327 32-32V288L352 96zm32 192l-64 64H192l-64-64H41.655l133.333-160h162.024l133.333 160H384z" fill="#595959"/></svg>
